app/assets/images/heroicon/mini/chevron-double-right.svg

<svg width="20" height="20" viewBox="0 0 20 20" fill="none" xmlns="http://www.w3.org/2000/svg">
<path fill-rule="evenodd" clip-rule="evenodd" d="M9.20938 16.7698C8.92228 16.4713 8.93159 15.9965 9.23017 15.7094L15.1679 10L9.23017 4.29062C8.93159 4.00353 8.92228 3.52875 9.20938 3.23017C9.49647 2.93159 9.97125 2.92228 10.2698 3.20937L16.7698 9.45937C16.9169 9.60078 17 9.79599 17 10C17 10.204 16.9169 10.3992 16.7698 10.5406L10.2698 16.7906C9.97125 17.0777 9.49647 17.0684 9.20938 16.7698Z" fill="#0F172A"/>
<path fill-rule="evenodd" clip-rule="evenodd" d="M3.20938 16.7698C2.92228 16.4713 2.93159 15.9965 3.23017 15.7094L9.16792 10L3.23017 4.29062C2.93159 4.00353 2.92228 3.52875 3.20938 3.23017C3.49647 2.93159 3.97125 2.92228 4.26983 3.20937L10.7698 9.45937C10.9169 9.60078 11 9.79599 11 10C11 10.204 10.9169 10.3992 10.7698 10.5406L4.26983 16.7906C3.97125 17.0777 3.49647 17.0684 3.20938 16.7698Z" fill="#0F172A"/>
</svg>

<svg xmlns="http://www.w3.org/2000/svg" viewBox="0 0 20 20" fill="currentColor" aria-hidden="true">
  <path fill-rule="evenodd" d="M9.21 16.77a.75.75 0 01.02-1.06L15.168 10 9.23 4.29a.75.75 0 011.04-1.08l6.5 6.25a.75.75 0 010 1.08l-6.5 6.25a.75.75 0 01-1.06-.02z" clip-rule="evenodd"/>
  <path fill-rule="evenodd" d="M3.21 16.77a.75.75 0 01.02-1.06L9.168 10 3.23 4.29a.75.75 0 111.04-1.08l6.5 6.25a.75.75 0 010 1.08l-6.5 6.25a.75.75 0 01-1.06-.02z" clip-rule="evenodd"/>
</svg>
